(=== Ag scanning-magnetron uniform-deposition program ===)
(Shifted: Machine Origin pushed down-left by 5mm from scan corner)
G90 G21 G17
G94
G00 X83.000 Y64.000
G04 P60
G00 X5.000 Y5.000
G04 P20
G01 F125 X161.000 Y5.000
G01 X161.000 Y125.000
G01 X5.000 Y125.000
G01 X5.000 Y5.000
G01 X161.000 Y5.000
G01 X161.000 Y125.000
G01 X5.000 Y125.000
G01 X5.000 Y5.000
O1 repeat [3]
G00 X5.000 Y5.000
G01 F125 Y125.000
G00 X11.000
G01 F150 Y5.000
G00 X17.000
G01 F525 Y125.000
G00 X23.000
G01 F1000 Y5.000
G00 X29.000
G01 F1000 Y125.000
G00 X37.000
G01 F1000 Y5.000
G00 X41.000
G01 F1000 Y125.000
G00 X47.000
G01 F1000 Y5.000
G00 X53.000
G01 F1000 Y125.000
G00 X59.000
G01 F1000 Y5.000
G00 X65.000
G01 F1000 Y125.000
G00 X71.000
G01 F1000 Y5.000
G00 X77.000
G01 F350 Y125.000
G00 X83.000
G01 F250 Y5.000
G00 X89.000
G01 F350 Y125.000
G00 X95.000
G01 F1000 Y5.000
G00 X101.000
G01 F1000 Y125.000
G00 X107.000
G01 F1000 Y5.000
G00 X113.000
G01 F1000 Y125.000
G00 X119.000
G01 F1000 Y5.000
G00 X125.000
G01 F1000 Y125.000
G00 X131.000
G01 F1000 Y5.000
G00 X137.000
G01 F1000 Y125.000
G00 X143.000
G01 F1000 Y5.000
G00 X149.000
G01 F525 Y125.000
G00 X155.000
G01 F150 Y5.000
G00 X161.000
G01 F125 Y125.000
O1 endrepeat
G00 X0.000 Y0.000
M30